X: 22760
T: Landlord's Walk, The
R: reel
M: 4/4
K: Amixolydian
|:~A3B c~B3|ceec e~A3|~A3a feef|ecce ~c2Bc|
~A3B c~B3|ceec e~A3|~A3a feef|eBBc ~A4:|
|:ceec ~e2Ac|ceec e~A3|~A3a feef|ecce ~c2B2|
ceec ~e2Ac|ceec e~A3|~A3a feef|eBBc ~A4:|
|:~A3B c~B3|ceec e~A3|~A3B c~B3|caaA ~c2Bc|
~A3B c~B3|ceec e~A3|~A3a feef|eBBc ~A4:|
|:~A3a feef|e~c3 e~A3|~A3a feef|ecce ~c2Bc|
~A3a feef|e~c3 e~A3|~A3a feef|eBBc ~A4:|

